X: 18109
T: Humours Of Bandon, The
R: jig
M: 6/8
K: Gmajor
|:D|DGG GFG|ABG FGA|BAG GFG|Ade f2 e|
d2 e c2 d|ABG FGA|BAG FEF|G3 G2:|
|:d|dgg gfg|aa/b/a/g/ f2 a|gg/a/g/f/ f d2 e|=ff/g/e/d/ c2 e|
dd/e/d/c/ A2 B|cc/d/c/B/ G2 B|AA/B/A/G/ F2 A|GFD EDC|
DGG GFG|ABG FGA|BAG GFG|Ade f2 e|
d2 e c2 d|ABG FGA|BAG FEF|G3 G2:|

